hackathon/svg-icons/src/components/icons/source/smart-car.svg

<svg fill="none" height="256" viewBox="0 0 256 256" width="256" xmlns="http://www.w3.org/2000/svg"><g fill="#000"><path d="m154.251 134.562v-9.844c0-1.296-.763-2.473-1.95-2.999l-8.016-3.563h.733c1.642.001 3.199-.736 4.239-2.009 1.039-1.271 1.452-2.944 1.122-4.554-.937-4.622-3.441-8.777-7.088-11.7656-3.646-2.9898-8.212-4.629-12.927-4.6406h-13.332l-22.4571-31.4368c-.6153-.8628-1.6084-1.374-2.6675-1.3755h-65.6245c-1.812 0-3.2812 1.4693-3.2812 3.2812v144.3743c0 .87.3457 1.705.9609 2.32s1.4502.961 2.3203.961h55.1471l14.6642 5.864 6.0018 12.008h-.002c.557 1.114 1.694 1.815 2.937 1.815h36.094c1.343 0 2.55-.817 3.048-2.064l6.562-16.406-.042-.016c.069-.132.127-.267.177-.407l1.726-6.91c5.406-21.745 5.97-44.411 1.654-66.401zm-8.016 71.043-1.109 4.427h-9.111l6.283-16.735c1.397-3.736.794-7.929-1.604-11.119-2.398-3.189-6.257-4.935-10.235-4.63l-21.183 1.64h-.001c-11.7734.901-23.3454 3.555-34.3347 7.875h-45.3747v-19.687h32.8123c4.1366-.003 8.197-1.122 11.7509-3.24 3.5537-2.117 6.4702-5.155 8.4419-8.792.9946 4.344 3.4336 8.225 6.9168 11.007 3.4834 2.78 7.8075 4.299 12.2655 4.306.145 0 .29-.01.433-.029l23.199-3.091h-.002c9.938-1.352 18.735-7.107 23.953-15.671 2.294 17.95 1.244 36.171-3.1 53.737zm-47.2907 7.642-14.2574-5.7-5.0887-15.263c9.703-3.577 19.8557-5.793 30.1668-6.586l21.187-1.64c1.742-.132 3.429.631 4.481 2.025 1.05 1.395 1.318 3.229.71 4.865l-7.218 19.272zm38.5717-75.213c-.774 3.848-2.78 7.338-5.714 9.947-2.932 2.608-6.635 4.191-10.547 4.509l-9.935.765c-2.47.218-4.915-.633-6.714-2.34-1.186-1.088-2.05-2.483-2.497-4.03zm-41.9579 9.656c.747 3.445 2.6528 6.53 5.3989 8.739 2.748 2.209 6.169 3.41 9.695 3.402.391 0 .78-.017 1.172-.046l9.941-.764c5.583-.46 10.843-2.809 14.914-6.658 4.07-3.848 6.709-8.968 7.481-14.517h3.327c-.742 5.854-3.396 11.3-7.549 15.492s-9.572 6.897-15.42 7.694l-22.969 3.064c-3.4434-.059-6.7263-1.466-9.1431-3.921-2.417-2.454-3.7732-5.76-3.7777-9.204v-3.281zm-65.992-3.281h47.8609l1.3124 1.312c-.3354 4.111-2.2045 7.944-5.2353 10.74-3.0308 2.797-7.0019 4.351-11.1254 4.354h-32.8122zm118.1239-17.558v4.433h-9.844c-.268 0-.534.032-.793.098l-38.9852 9.745h-14.644l-2.3203-2.32h.0015c-.6152-.615-1.4502-.961-2.3203-.961h-49.2184v-22.968h91.1767l7.258 3.225v.056h.125zm-17.337-25.098c2.973.007 5.865.967 8.254 2.739 2.388 1.771 4.146 4.261 5.014 7.104h-14.109l-1.641-.725c-.085-.423-.256-.824-.501-1.18l-5.647-7.938zm-100.7884-32.8125h60.652l28.1264 39.3745h-88.7807zm0 137.8115v-13.125h43.5709l4.374 13.125zm109.3414 19.687h-31.845l-3.525-7.051 27.914-2.792h11.392z"/><path d="m157.532 65.656h-13.125c-1.812 0-3.281 1.4692-3.281 3.2812.013 12.1788 4.857 23.8562 13.469 32.4678 8.612 8.612 20.289 13.456 32.468 13.469.87 0 1.705-.345 2.32-.961.615-.615.961-1.45.961-2.32v-13.1247c0-.8701-.346-1.7051-.961-2.3203-.615-.6153-1.45-.961-2.32-.961-6.96-.0073-13.632-2.7758-18.552-7.6975-4.922-4.9204-7.691-11.5927-7.698-18.5523 0-.8701-.346-1.705-.961-2.3203-.615-.6152-1.45-.9609-2.32-.9609zm26.25 35.929v6.592c-9.273-.79-17.968-4.831-24.548-11.4112-6.58-6.5801-10.621-15.2752-11.411-24.5477h6.592c.767 7.5262 4.108 14.5574 9.458 19.9086 5.351 5.3497 12.382 8.6913 19.909 9.4583z"/><path d="m187.063 42.6873c6.959.0074 13.632 2.7759 18.552 7.6976 4.922 4.9203 7.691 11.5927 7.698 18.5522 0 .8701.345 1.7051.961 2.3203.615.6153 1.45.961 2.32.961h13.125c.87 0 1.705-.3457 2.32-.961.615-.6152.961-1.4502.961-2.3203-.013-12.1787-4.857-23.8561-13.469-32.468-8.612-8.6118-20.289-13.456-32.468-13.4691-1.812 0-3.281 1.4692-3.281 3.2812v13.1249c0 .8701.345 1.7051.961 2.3203.615.6152 1.45.9609 2.32.9609zm3.281-12.9902c9.273.7895 17.968 4.8311 24.548 11.4111 6.58 6.5801 10.621 15.2752 11.411 24.5477h-6.592c-.767-7.5262-4.109-14.5574-9.458-19.9086-5.352-5.3497-12.383-8.6909-19.909-9.4585z"/><path d="m167.375 62.3747c3.481 0 6.819-1.3828 9.282-3.8437 2.461-2.4624 3.843-5.8009 3.843-9.2812 0-3.4804-1.382-6.819-3.843-9.2812-2.463-2.4609-5.801-3.8437-9.282-3.8437-3.48 0-6.818 1.3828-9.281 3.8437-2.461 2.4624-3.843 5.8008-3.843 9.2812 0 3.4803 1.382 6.8189 3.843 9.2812 2.463 2.4609 5.801 3.8437 9.281 3.8437zm0-19.6874c1.741 0 3.411.6914 4.641 1.9219 1.231 1.2304 1.922 2.9004 1.922 4.6406s-.691 3.4101-1.922 4.6406c-1.23 1.2304-2.9 1.9218-4.641 1.9218-1.74 0-3.41-.6914-4.64-1.9218-1.231-1.2305-1.922-2.9004-1.922-4.6406s.691-3.4102 1.922-4.6406c1.23-1.2305 2.9-1.9219 4.64-1.9219z"/><path d="m206.75 101.749c3.481 0 6.819-1.382 9.281-3.8433 2.461-2.4624 3.844-5.8008 3.844-9.2812 0-3.4803-1.383-6.8189-3.844-9.2811-2.462-2.461-5.8-3.8438-9.281-3.8438-3.48 0-6.819 1.3828-9.281 3.8438-2.461 2.4623-3.844 5.8008-3.844 9.2811 0 3.4804 1.383 6.819 3.844 9.2812 2.462 2.4613 5.801 3.8433 9.281 3.8433zm0-19.6869c1.74 0 3.41.6914 4.641 1.9218 1.23 1.2305 1.922 2.9004 1.922 4.6406s-.692 3.4102-1.922 4.6406c-1.231 1.2304-2.901 1.9219-4.641 1.9219s-3.41-.6915-4.64-1.9219c-1.231-1.2304-1.922-2.9004-1.922-4.6406s.691-3.4101 1.922-4.6406c1.23-1.2304 2.9-1.9218 4.64-1.9218z"/><path d="m36.1266 49.2498h57.4195l8.8589 11.8124c.62.8262 1.593 1.3125 2.625 1.3125 1.033 0 2.006-.4863 2.625-1.3125l8.86-11.8124h21.328c4.689 0 9.022-2.502 11.367-6.5625 2.343-4.0604 2.343-9.0644 0-13.1249-2.346-4.0604-6.679-6.5624-11.367-6.5624h-101.7183c-4.689 0-9.022 2.5019-11.3669 6.5624-2.3437 4.0605-2.3437 9.0645 0 13.1249 2.3452 4.0605 6.6783 6.5625 11.3669 6.5625zm0-19.6874h101.7184c2.345 0 4.511 1.251 5.683 3.2813 1.172 2.0302 1.172 4.5322 0 6.5624-1.172 2.0303-3.338 3.2812-5.683 3.2812h-22.969c-1.033 0-2.005.4864-2.625 1.3125l-7.219 9.624-7.2184-9.624c-.6196-.8261-1.5923-1.3125-2.625-1.3125h-59.062c-2.3452 0-4.5116-1.2509-5.6835-3.2812-1.1718-2.0303-1.1718-4.5322 0-6.5624 1.1719-2.0303 3.3384-3.2813 5.6835-3.2813z"/><path d="m187.063 91.9057v-6.5625c-4.349-.0058-8.52-1.7358-11.596-4.8104-3.074-3.0762-4.804-7.2465-4.81-11.5957h-6.563c.008 6.0892 2.43 11.9268 6.736 16.2333 4.306 4.3049 10.144 6.7278 16.233 6.7353z"/><path d="m203.469 68.9371h6.562c-.007-6.0892-2.43-11.9268-6.735-16.2333-4.306-4.3049-10.144-6.7278-16.233-6.7353v6.5625c4.349.0058 8.519 1.7358 11.596 4.8104 3.074 3.0762 4.804 7.2465 4.81 11.5957z"/><path d="m229.719 124.718h-55.781c-1.812 0-3.281 1.469-3.281 3.281v14.651l-8.383 5.578c-.913.608-1.462 1.632-1.462 2.729 0 1.098.549 2.123 1.462 2.731l8.383 5.597v70.432c0 .87.345 1.705.961 2.32.615.615 1.45.961 2.32.961h55.781c.87 0 1.705-.346 2.32-.961s.961-1.45.961-2.32v-101.718c0-.87-.346-1.705-.961-2.32-.615-.616-1.45-.961-2.32-.961zm-3.281 101.718h-49.219v-68.906c0-1.097-.548-2.121-1.46-2.73l-5.758-3.832 5.748-3.832c.917-.607 1.469-1.632 1.47-2.731v-13.125h49.219z"/></g></svg>

<svg xmlns="http://www.w3.org/2000/svg" width="256" height="256" fill="none" viewBox="0 0 256 256"><path fill="#000" d="M154.251 134.562V124.718C154.251 123.422 153.488 122.245 152.301 121.719L144.285 118.156H145.018C146.66 118.157 148.217 117.42 149.257 116.147C150.296 114.876 150.709 113.203 150.379 111.593C149.442 106.971 146.938 102.816 143.291 99.8274C139.645 96.8376 135.079 95.1984 130.364 95.1868H117.032L94.5749 63.75C93.9596 62.8872 92.9665 62.376 91.9074 62.3745H26.2829C24.4709 62.3745 23.0017 63.8438 23.0017 65.6557V210.03C23.0017 210.9 23.3474 211.735 23.9626 212.35C24.5778 212.965 25.4128 213.311 26.2829 213.311H81.43L96.0942 219.175L102.096 231.183H102.094C102.651 232.297 103.788 232.998 105.031 232.998H141.125C142.468 232.998 143.675 232.181 144.173 230.934L150.735 214.528L150.693 214.512C150.762 214.38 150.82 214.245 150.87 214.105L152.596 207.195C158.002 185.45 158.566 162.784 154.25 140.794L154.251 134.562ZM146.235 205.605L145.126 210.032H136.015L142.298 193.297C143.695 189.561 143.092 185.368 140.694 182.178C138.296 178.989 134.437 177.243 130.459 177.548L109.276 179.188H109.275C97.5016 180.089 85.9296 182.743 74.9403 187.063H29.5656V167.376H62.3779C66.5145 167.373 70.5749 166.254 74.1288 164.136C77.6825 162.019 80.599 158.981 82.5707 155.344C83.5653 159.688 86.0043 163.569 89.4875 166.351C92.9709 169.131 97.295 170.65 101.753 170.657C101.898 170.657 102.043 170.647 102.186 170.628L125.385 167.537H125.383C135.321 166.185 144.118 160.43 149.336 151.866C151.63 169.816 150.58 188.037 146.236 205.603L146.235 205.605ZM98.9443 213.247L84.6869 207.547L79.5982 192.284C89.3012 188.707 99.4539 186.491 109.765 185.698L130.952 184.058C132.694 183.926 134.381 184.689 135.433 186.083C136.483 187.478 136.751 189.312 136.143 190.948L128.925 210.22L98.9443 213.247ZM137.516 138.034C136.742 141.882 134.736 145.372 131.802 147.981C128.87 150.589 125.167 152.172 121.255 152.49L111.32 153.255C108.85 153.473 106.405 152.622 104.606 150.915C103.42 149.827 102.556 148.432 102.109 146.885L137.516 138.034ZM95.5581 147.69C96.3051 151.135 98.2109 154.22 100.957 156.429C103.705 158.638 107.126 159.839 110.652 159.831C111.043 159.831 111.432 159.814 111.824 159.785L121.765 159.021C127.348 158.561 132.608 156.212 136.679 152.363C140.749 148.515 143.388 143.395 144.16 137.846H147.487C146.745 143.7 144.091 149.146 139.938 153.338C135.785 157.53 130.366 160.235 124.518 161.032L101.549 164.096C98.1056 164.037 94.8227 162.63 92.4059 160.175C89.9889 157.721 88.6327 154.415 88.6282 150.971V147.69H95.5581ZM29.5661 144.409H77.427L78.7394 145.721C78.404 149.832 76.5349 153.665 73.5041 156.461C70.4733 159.258 66.5022 160.812 62.3787 160.815H29.5665L29.5661 144.409ZM147.69 126.851V131.284H137.846C137.578 131.284 137.312 131.316 137.053 131.382L98.0678 141.127H83.4238L81.1035 138.807H81.105C80.4898 138.192 79.6548 137.846 78.7847 137.846H29.5663V114.878H120.743L128.001 118.103V118.159H128.126L147.69 126.851ZM130.353 101.753C133.326 101.76 136.218 102.72 138.607 104.492C140.995 106.263 142.753 108.753 143.621 111.596H129.512L127.871 110.871C127.786 110.448 127.615 110.047 127.37 109.691L121.723 101.753L130.353 101.753ZM29.5646 68.9405H90.2166L118.343 108.315H29.5623L29.5646 68.9405ZM29.5646 206.752V193.627H73.1355L77.5095 206.752H29.5646ZM138.906 226.439H107.061L103.536 219.388L131.45 216.596H142.842L138.906 226.439Z"/><path fill="#000" d="M157.532 65.656H144.407C142.595 65.656 141.126 67.1252 141.126 68.9372C141.139 81.116 145.983 92.7934 154.595 101.405C163.207 110.017 174.884 114.861 187.063 114.874C187.933 114.874 188.768 114.529 189.383 113.913C189.998 113.298 190.344 112.463 190.344 111.593V98.4683C190.344 97.5982 189.998 96.7632 189.383 96.148C188.768 95.5327 187.933 95.187 187.063 95.187C180.103 95.1797 173.431 92.4112 168.511 87.4895C163.589 82.5691 160.82 75.8968 160.813 68.9372C160.813 68.0671 160.467 67.2322 159.852 66.6169C159.237 66.0017 158.402 65.656 157.532 65.656V65.656ZM183.782 101.585V108.177C174.509 107.387 165.814 103.346 159.234 96.7658C152.654 90.1857 148.613 81.4906 147.823 72.2181H154.415C155.182 79.7443 158.523 86.7755 163.873 92.1267C169.224 97.4764 176.255 100.818 183.782 101.585Z"/><path fill="#000" d="M187.063 42.6873C194.022 42.6947 200.695 45.4632 205.615 50.3849C210.537 55.3052 213.306 61.9776 213.313 68.9371C213.313 69.8072 213.658 70.6422 214.274 71.2574C214.889 71.8727 215.724 72.2184 216.594 72.2184H229.719C230.589 72.2184 231.424 71.8727 232.039 71.2574C232.654 70.6422 233 69.8072 233 68.9371C232.987 56.7584 228.143 45.081 219.531 36.4691C210.919 27.8573 199.242 23.0131 187.063 23C185.251 23 183.782 24.4692 183.782 26.2812V39.4061C183.782 40.2762 184.127 41.1112 184.743 41.7264C185.358 42.3416 186.193 42.6873 187.063 42.6873V42.6873ZM190.344 29.6971C199.617 30.4866 208.312 34.5282 214.892 41.1082C221.472 47.6883 225.513 56.3834 226.303 65.6559H219.711C218.944 58.1297 215.602 51.0985 210.253 45.7473C204.901 40.3976 197.87 37.0564 190.344 36.2888V29.6971Z"/><path fill="#000" d="M167.375 62.3747C170.856 62.3747 174.194 60.9919 176.657 58.531C179.118 56.0686 180.5 52.7301 180.5 49.2498C180.5 45.7694 179.118 42.4308 176.657 39.9686C174.194 37.5077 170.856 36.1249 167.375 36.1249C163.895 36.1249 160.557 37.5077 158.094 39.9686C155.633 42.431 154.251 45.7694 154.251 49.2498C154.251 52.7301 155.633 56.0687 158.094 58.531C160.557 60.9919 163.895 62.3747 167.375 62.3747ZM167.375 42.6873C169.116 42.6873 170.786 43.3787 172.016 44.6092C173.247 45.8396 173.938 47.5096 173.938 49.2498C173.938 50.99 173.247 52.6599 172.016 53.8904C170.786 55.1208 169.116 55.8122 167.375 55.8122C165.635 55.8122 163.965 55.1208 162.735 53.8904C161.504 52.6599 160.813 50.99 160.813 49.2498C160.813 47.5096 161.504 45.8396 162.735 44.6092C163.965 43.3787 165.635 42.6873 167.375 42.6873Z"/><path fill="#000" d="M206.75 101.749C210.231 101.749 213.569 100.367 216.031 97.9057C218.492 95.4433 219.875 92.1049 219.875 88.6245C219.875 85.1442 218.492 81.8056 216.031 79.3434C213.569 76.8824 210.231 75.4996 206.75 75.4996C203.27 75.4996 199.931 76.8824 197.469 79.3434C195.008 81.8057 193.625 85.1442 193.625 88.6245C193.625 92.1049 195.008 95.4435 197.469 97.9057C199.931 100.367 203.27 101.749 206.75 101.749ZM206.75 82.0621C208.49 82.0621 210.16 82.7535 211.391 83.9839C212.621 85.2144 213.313 86.8843 213.313 88.6245C213.313 90.3647 212.621 92.0347 211.391 93.2651C210.16 94.4955 208.49 95.187 206.75 95.187C205.01 95.187 203.34 94.4955 202.11 93.2651C200.879 92.0347 200.188 90.3647 200.188 88.6245C200.188 86.8843 200.879 85.2144 202.11 83.9839C203.34 82.7535 205.01 82.0621 206.75 82.0621Z"/><path fill="#000" d="M36.1266 49.2498H93.5461L102.405 61.0622C103.025 61.8884 103.998 62.3747 105.03 62.3747C106.063 62.3747 107.036 61.8884 107.655 61.0622L116.515 49.2498H137.843C142.532 49.2498 146.865 46.7478 149.21 42.6873C151.553 38.6269 151.553 33.6229 149.21 29.5624C146.864 25.502 142.531 23 137.843 23H36.1247C31.4357 23 27.1027 25.5019 24.7578 29.5624C22.4141 33.6229 22.4141 38.6269 24.7578 42.6873C27.103 46.7478 31.4361 49.2498 36.1247 49.2498H36.1266ZM36.1266 29.5624H137.845C140.19 29.5624 142.356 30.8134 143.528 32.8437C144.7 34.8739 144.7 37.3759 143.528 39.4061C142.356 41.4364 140.19 42.6873 137.845 42.6873H114.876C113.843 42.6873 112.871 43.1737 112.251 43.9998L105.032 53.6238L97.8136 43.9998C97.194 43.1737 96.2213 42.6873 95.1886 42.6873H36.1266C33.7814 42.6873 31.615 41.4364 30.4431 39.4061C29.2713 37.3758 29.2713 34.8739 30.4431 32.8437C31.615 30.8134 33.7815 29.5624 36.1266 29.5624Z"/><path fill="#000" d="M187.063 91.9057V85.3432C182.714 85.3374 178.543 83.6074 175.467 80.5328C172.393 77.4566 170.663 73.2863 170.657 68.9371H164.094C164.102 75.0263 166.524 80.8639 170.83 85.1704C175.136 89.4753 180.974 91.8982 187.063 91.9057Z"/><path fill="#000" d="M203.469 68.9371H210.031C210.024 62.8479 207.601 57.0103 203.296 52.7038C198.99 48.3989 193.152 45.976 187.063 45.9685V52.531C191.412 52.5368 195.582 54.2668 198.659 57.3414C201.733 60.4176 203.463 64.5879 203.469 68.9371Z"/><path fill="#000" d="M229.719 124.718H173.938C172.126 124.718 170.657 126.187 170.657 127.999V142.65L162.274 148.228C161.361 148.836 160.812 149.86 160.812 150.957C160.812 152.055 161.361 153.08 162.274 153.688L170.657 159.285V229.717C170.657 230.587 171.002 231.422 171.618 232.037C172.233 232.652 173.068 232.998 173.938 232.998H229.719C230.589 232.998 231.424 232.652 232.039 232.037C232.654 231.422 233 230.587 233 229.717V127.999C233 127.129 232.654 126.294 232.039 125.679C231.424 125.063 230.589 124.718 229.719 124.718V124.718ZM226.438 226.436H177.219V157.53C177.219 156.433 176.671 155.409 175.759 154.8L170.001 150.968L175.749 147.136C176.666 146.529 177.218 145.504 177.219 144.405V131.28H226.438L226.438 226.436Z"/></svg>
